X: 69
T: Veni, sancte spiritus
C: Gaspar van Weerbeke
%%abc-version 2.0
%%abcx-abcm2ps-target-version 5.9.1 (29 Sep 2008)
%%abc-creator hum2abc beta
%%abcx-conversion-date 2022/03/06 13:05:53
%%abc-copyright Copyright 1994, Lindmayr-Brandl, Andrea
%%abc-edited-by Mair-Gruber, Roland
%%humdrum-veritas 495017895
%%humdrum-veritas-data 3396829730
%%linebreak <none>
%%barnumbers 0
L: 1/4
M: 2/2
N: Derived from Gas0303b-In_honorem_sancti_spiritus-Veni_sancte_spiritus.krn
%%staves [1 2 3 4]
V: 1 clef=treble
V: 2 clef=treble-8
V: 3 clef=treble-8
V: 4 clef=bass
K: C
[V:1] z4 | 
[V:2] d4 | 
[V:3] z4 | 
[V:4] z4 | 
[V:1] G4 | 
[V:2] B2c2- | 
[V:3] z4 | 
[V:4] z4 | 
[V:1] E2F2- | 
[V:2] c2A2 | 
[V:3] z4 | 
[V:4] z4 | 
[V:1] F2D2 | 
[V:2] d>ef3/e/ | 
[V:3] z4 | 
[V:4] z4 | 
[V:1] F2A2- | 
[V:2] d/c<dc/A | 
[V:3] z4 | 
[V:4] z4 | 
[V:1] AGG2- | 
[V:2] c>dB2 | 
[V:3] z4 | 
[V:4] z4 | 
[V:1] G2^F2 | 
[V:2] A4 | 
[V:3] z4 | 
[V:4] D,4 | 
[V:1] G4 | 
[V:2] G4 | 
[V:3] G4 | 
[V:4] B,,2C,2- | 
[V:1] z4 | 
[V:2] z4 | 
[V:3] E2F2- | 
[V:4] C,2A,,2 | 
[V:1] z4 | 
[V:2] z4 | 
[V:3] F2D2 | 
[V:4] D,>E,F,3/E,/ | 
[V:1] z4 | 
[V:2] z4 | 
[V:3] F2A2- | 
[V:4] D,/C,<D,C,/A,, | 
[V:1] z4 | 
[V:2] z4 | 
[V:3] AGG2- | 
[V:4] C,>D,B,,2 | 
[V:1] z4 | 
[V:2] z2c2 | 
[V:3] G2^F2 | 
[V:4] A,,4 | 
[V:1] z2G2 | 
[V:2] B2d2 | 
[V:3] G2G2 | 
[V:4] G,,2G,,2 | 
[V:1] E2DG- | 
[V:2] c2d2 | 
[V:3] G2G2 | 
[V:4] C,2B,,G,, | 
[V:1] G^F/E/F2 | 
[V:2] d4 | 
[V:3] A4 | 
[V:4] D,4 | 
[V:1] G2F2 | 
[V:2] Bcd2 | 
[V:3] G2A2 | 
[V:4] E,2D,2 | 
[V:1] E>FGA | 
[V:2] e3c | 
[V:3] c4 | 
[V:4] C,4 | 
[V:1] B2c2 | 
[V:2] def2 | 
[V:3] G2A2 | 
[V:4] zG,F,2 | 
[V:1] BA2G/F/ | 
[V:2] dfc2 | 
[V:3] GFA2 | 
[V:4] G,D,F,2 | 
[V:1] EF2E | 
[V:2] z2c2 | 
[V:3] G4 | 
[V:4] C,4 | 
[V:1] F2zF | 
[V:2] d2cA | 
[V:3] F4 | 
[V:4] z2F,2 | 
[V:1] G2A2 | 
[V:2] B2G2 | 
[V:3] z2F2 | 
[V:4] E,2F,2 | 
[V:1] B2c3/B/ | 
[V:2] d2c/B/A/G/ | 
[V:3] G2A2 | 
[V:4] z4 | 
[V:1] A/G<AG/F/E/ | 
[V:2] AFzA | 
[V:3] c3d- | 
[V:4] F,3D,- | 
[V:1] F/E/A2^G | 
[V:2] d2e2 | 
[V:3] d/c/AB2 | 
[V:4] D,/E,/F,E,2 | 
[V:1] A2z2 | 
[V:2] c2z2 | 
[V:3] A2z2 | 
[V:4] F,3E, | 
[V:1] z4 | 
[V:2] f3e | 
[V:3] z4 | 
[V:4] D,2C,2 | 
[V:1] z4 | 
[V:2] d2c2 | 
[V:3] z4 | 
[V:4] D,2A,,2 | 
[V:1] z4 | 
[V:2] d/c/B/A/Gc- | 
[V:3] z4 | 
[V:4] B,,2C,E, | 
[V:1] z4 | 
[V:2] cBc2 | 
[V:3] z4 | 
[V:4] D,2C,2 | 
[V:1] c3B | 
[V:2] z4 | 
[V:3] z4 | 
[V:4] z4 | 
[V:1] A2G2 | 
[V:2] z4 | 
[V:3] c3B | 
[V:4] z4 | 
[V:1] A2E2 | 
[V:2] z4 | 
[V:3] A2G2 | 
[V:4] z4 | 
[V:1] F2G/F/E/D/ | 
[V:2] z4 | 
[V:3] A2E2 | 
[V:4] z4 | 
[V:1] CEDG- | 
[V:2] z4 | 
[V:3] zcBG | 
[V:4] z4 | 
[V:1] G^FG2 | 
[V:2] z4 | 
[V:3] A2G2 | 
[V:4] z4 | 
[V:1] z4 | 
[V:2] zFG2 | 
[V:3] z4 | 
[V:4] z4 | 
[V:1] z4 | 
[V:2] AcBd | 
[V:3] z4 | 
[V:4] zF,,G,,2 | 
[V:1] z4 | 
[V:2] c>BA/G/A- | 
[V:3] z4 | 
[V:4] A,,2C,2 | 
[V:1] z4 | 
[V:2] AG/F/EA- | 
[V:3] z4 | 
[V:4] D,2C,A,, | 
[V:1] z4 | 
[V:2] A^GA2 | 
[V:3] z4 | 
[V:4] B,,2A,,2 | 
[V:1] c3B | 
[V:2] z4 | 
[V:3] z4 | 
[V:4] z4 | 
[V:1] A2G2 | 
[V:2] z4 | 
[V:3] c3B | 
[V:4] z4 | 
[V:1] AcB/A/G/F/ | 
[V:2] z4 | 
[V:3] A2G2 | 
[V:4] z4 | 
[V:1] EG2F- | 
[V:2] z4 | 
[V:3] ABcA | 
[V:4] z4 | 
[V:1] FEF2 | 
[V:2] z2zF | 
[V:3] G2F2 | 
[V:4] z4 | 
[V:1] z4 | 
[V:2] G2A2 | 
[V:3] z4 | 
[V:4] z2zF,, | 
[V:1] z4 | 
[V:2] GBAc | 
[V:3] z4 | 
[V:4] G,,2A,,2 | 
[V:1] z4 | 
[V:2] BdcB/A/ | 
[V:3] z4 | 
[V:4] G,,B,,A,,C, | 
[V:1] z4 | 
[V:2] GFEA- | 
[V:3] z4 | 
[V:4] B,,D,C,A,, | 
[V:1] z4 | 
[V:2] A^GA2 | 
[V:3] z4 | 
[V:4] B,,2A,,2 | 
[V:1] z4 | 
[V:2] e3d | 
[V:3] c3B | 
[V:4] z4 | 
[V:1] c3B | 
[V:2] cf2e- | 
[V:3] A2G2 | 
[V:4] z4 | 
[V:1] A2G2 | 
[V:2] ede2 | 
[V:3] F2EG | 
[V:4] z4 | 
[V:1] F2E2 | 
[V:2] z2ze- | 
[V:3] ABc/B/A/G/ | 
[V:4] z2C,2- | 
[V:1] zGA2 | 
[V:2] edc2 | 
[V:3] AG2^F | 
[V:4] C,B,,A,,2 | 
[V:1] B>AG/F/E- | 
[V:2] Bdec- | 
[V:3] G2z2 | 
[V:4] G,,2C,2 | 
[V:1] EGFA | 
[V:2] c/B/GA2 | 
[V:3] c2d2 | 
[V:4] E,2D,3/F,/ | 
[V:1] G>EFD- | 
[V:2] zGAB- | 
[V:3] Bcd2 | 
[V:4] E,2D,G,- | 
[V:1] DG2^F | 
[V:2] Bcd2 | 
[V:3] BGA2 | 
[V:4] G,E,D,2 | 
[V:1] G4 | 
[V:2] B>AGF | 
[V:3] G4 | 
[V:4] E,3D, | 
[V:1] G2F2 | 
[V:2] EDC2 | 
[V:3] z4 | 
[V:4] C,B,,A,,2 | 
[V:1] G2AG/F/ | 
[V:2] D>E F/G/A/B/ | 
[V:3] G2F2 | 
[V:4] G,,2D,2 | 
[V:1] E2F2 | 
[V:2] c2d2 | 
[V:3] G2AG/F/ | 
[V:4] C,E,D,2 | 
[V:1] GE2D- | 
[V:2] G2zA- | 
[V:3] EG2F | 
[V:4] C,3D, | 
[V:1] D^CD2 | 
[V:2] A2F2 | 
[V:3] E2D2- | 
[V:4] A,,2A,2- | 
[V:1] z2F2 | 
[V:2] DA2G/F/ | 
[V:3] D2z2 | 
[V:4] A,F,2E,/D,/ | 
[V:1] E2F2 | 
[V:2] GA>GA/B/ | 
[V:3] z2F2 | 
[V:4] C,2D,2 | 
[V:1] G2c2 | 
[V:2] c2z2 | 
[V:3] E2F2 | 
[V:4] C,>B,,A,,2 | 
[V:1] BdcA- | 
[V:2] d2ef | 
[V:3] G2Ac | 
[V:4] G,,2zF, | 
[V:1] AG2^F | 
[V:2] d/B/cd2 | 
[V:3] BGA2 | 
[V:4] G,E,D,2 | 
[V:1] G4 |]  
[V:2] d4 |]  
[V:3] G4 |]  
[V:4] G,,4 |]  


